X: 1
T: Ena Karavi apo ti Hio    [F]
T: a Ship from Hios
R: syrtos, hiotikos
Z: 2014 John Chambers <jc:trillian.mit.edu>
M: C
L: 1/8
K: F
AB=B "instr."|\
"F"cdcA BcBG | ABAG FGAB |\
"F"cdcA BcBG | ABc2 zAB=B |
"F"cdcA BcBG | ABAG FGAB |\
"C"c=Bdc _BA^GA !Coda!| "F"F2E2 D2C2 ||
"vocal"|:\
"F"F3F GFEF | "Gm"G3A BABc |\
"F"A3F AFAB | ~c2=Bc dc_BA |
"C"G3F cBAG |[1 "F"F2E2 D2C2 :|[2 "F"F4 zCEF \
"vocal"|:\
"Gm"G3B AGFE |
"C"D2C2 EFGE |[1 "F"FdcB AG (3FEF :|\
[2 "F"F4 "d.C. al coda"|] y8 !Coda!| "F"F2C2 F2 |]


